symbols/web/set_meal/materialsymbolsrounded/set_meal_grad200_20px.svg

<svg xmlns="http://www.w3.org/2000/svg" height="20" width="20"><path d="M2.854 12.771q-.979 0-1.635-.656-.657-.657-.657-1.636V3.688q0-.98.657-1.636.656-.656 1.635-.656h14.292q.979 0 1.635.656.657.656.657 1.636v6.791q0 .979-.657 1.636-.656.656-1.635.656Zm0-2.292h14.292V3.688H2.854v6.791Zm.334 4.896q-.271.021-.459-.146-.187-.167-.208-.437-.021-.271.156-.459.177-.187.448-.208l13.729-.708q.271-.021.458.145.188.167.209.438.021.271-.156.458-.177.188-.448.209Zm-.063 2.104q-.271 0-.448-.177t-.177-.448q0-.271.177-.448t.448-.177h13.75q.271 0 .448.177t.177.448q0 .271-.177.448t-.448.177Zm-.271-7V3.688v6.791Zm1.563-2.375q1.208 1.021 2.468 1.219 1.261.198 1.865.198.604 0 1.969-.198 1.364-.198 2.906-1.719.167.563.573.906.406.344.906.532.458.166.834-.167.374-.333.374-.896V6.208q0-.562-.374-.895-.376-.334-.834-.167-.5.208-.916.562-.417.354-.563.896Q11.896 5 10.615 4.823q-1.282-.177-1.865-.177-.604 0-1.865.187-1.26.188-2.468 1.209-.459.354-.459 1.031 0 .677.459 1.031Z"/></svg>

<svg xmlns="http://www.w3.org/2000/svg" height="20" width="20"><path d="M2.854 12.771Q1.875 12.771 1.219 12.115Q0.562 11.458 0.562 10.479V3.688Q0.562 2.708 1.219 2.052Q1.875 1.396 2.854 1.396H17.146Q18.125 1.396 18.781 2.052Q19.438 2.708 19.438 3.688V10.479Q19.438 11.458 18.781 12.115Q18.125 12.771 17.146 12.771ZM2.854 10.479H17.146Q17.146 10.479 17.146 10.479Q17.146 10.479 17.146 10.479V3.688Q17.146 3.688 17.146 3.688Q17.146 3.688 17.146 3.688H2.854Q2.854 3.688 2.854 3.688Q2.854 3.688 2.854 3.688V10.479Q2.854 10.479 2.854 10.479Q2.854 10.479 2.854 10.479ZM3.188 15.375Q2.917 15.396 2.729 15.229Q2.542 15.062 2.521 14.792Q2.5 14.521 2.677 14.333Q2.854 14.146 3.125 14.125L16.854 13.417Q17.125 13.396 17.312 13.562Q17.5 13.729 17.521 14Q17.542 14.271 17.365 14.458Q17.188 14.646 16.917 14.667ZM3.125 17.479Q2.854 17.479 2.677 17.302Q2.5 17.125 2.5 16.854Q2.5 16.583 2.677 16.406Q2.854 16.229 3.125 16.229H16.875Q17.146 16.229 17.323 16.406Q17.5 16.583 17.5 16.854Q17.5 17.125 17.323 17.302Q17.146 17.479 16.875 17.479ZM2.854 10.479Q2.854 10.479 2.854 10.479Q2.854 10.479 2.854 10.479V3.688Q2.854 3.688 2.854 3.688Q2.854 3.688 2.854 3.688Q2.854 3.688 2.854 3.688Q2.854 3.688 2.854 3.688V10.479Q2.854 10.479 2.854 10.479Q2.854 10.479 2.854 10.479ZM4.417 8.104Q5.625 9.125 6.885 9.323Q8.146 9.521 8.75 9.521Q9.354 9.521 10.719 9.323Q12.083 9.125 13.625 7.604Q13.792 8.167 14.198 8.51Q14.604 8.854 15.104 9.042Q15.562 9.208 15.938 8.875Q16.312 8.542 16.312 7.979V6.208Q16.312 5.646 15.938 5.313Q15.562 4.979 15.104 5.146Q14.604 5.354 14.188 5.708Q13.771 6.062 13.625 6.604Q11.896 5 10.615 4.823Q9.333 4.646 8.75 4.646Q8.146 4.646 6.885 4.833Q5.625 5.021 4.417 6.042Q3.958 6.396 3.958 7.073Q3.958 7.75 4.417 8.104Z"/></svg>
